X:55
T:Sharps Hornpipe. JBu.55
T:Vinton’s Hp,aka. JBu.55
O:England,South Yorkshire
S:Joshua Burnett’s MS,c1835,S.Yorkshire
M:C
L:1/8
Q:1/2=90
R:.hornpipe
Z:vmp.R.Greig.2011
K:Bb
fe|d2B2B2dB|cBAG F2FE|DFBF GecA|A2F2F2fe|
d2B2B2 gf|e2c2c2cB|Acfa dbge|f2f2f2:|
|:f>e|dBAB dBAB|GEDE GEDE|cded edcB|A2F2F2de|
fBAB gBAB|aBAB bBAB|GBce eBcA|B2B2B2:|

